Numix/16/status/indicator-keyboard-Mi.svg

<?xml version="1.0" encoding="UTF-8" standalone="no"?>
<svg
   xmlns:dc="http://purl.org/dc/elements/1.1/"
   xmlns:cc="http://creativecommons.org/ns#"
   xmlns:rdf="http://www.w3.org/1999/02/22-rdf-syntax-ns#"
   xmlns:svg="http://www.w3.org/2000/svg"
   xmlns="http://www.w3.org/2000/svg"
   xmlns:sodipodi="http://sodipodi.sourceforge.net/DTD/sodipodi-0.dtd"
   xmlns:inkscape="http://www.inkscape.org/namespaces/inkscape"
   viewBox="0 0 16 16"
   id="svg2"
   version="1.1"
   inkscape:version="0.91 r13725"
   sodipodi:docname="indicator-keyboard-Mi.svg">
  <metadata
     id="metadata13">
    <rdf:RDF>
      <cc:Work
         rdf:about="">
        <dc:format>image/svg+xml</dc:format>
        <dc:type
           rdf:resource="http://purl.org/dc/dcmitype/StillImage" />
      </cc:Work>
    </rdf:RDF>
  </metadata>
  <defs
     id="defs11" />
  <sodipodi:namedview
     pagecolor="#ffffff"
     bordercolor="#666666"
     borderopacity="1"
     objecttolerance="10"
     gridtolerance="10"
     guidetolerance="10"
     inkscape:pageopacity="0"
     inkscape:pageshadow="2"
     inkscape:window-width="459"
     inkscape:window-height="369"
     id="namedview9"
     showgrid="false"
     inkscape:zoom="14.75"
     inkscape:cx="8"
     inkscape:cy="8"
     inkscape:window-x="65"
     inkscape:window-y="24"
     inkscape:window-maximized="0"
     inkscape:current-layer="svg2" />
  <path
     style="fill:#ececec;fill-opacity:1"
     d="M 1.5996094 0 C 0.71320937 2.9605947e-16 0 0.71320937 0 1.5996094 L 0 14.400391 C 2.9605947e-16 15.286791 0.71320937 16 1.5996094 16 L 14.400391 16 C 15.286791 16 16 15.286791 16 14.400391 L 16 1.5996094 C 16 0.71320937 15.286791 0 14.400391 0 L 1.5996094 0 z M 11.880859 4.7460938 C 12.000859 4.7460938 12.101547 4.7890469 12.185547 4.8730469 C 12.269547 4.9510469 12.3125 5.0592656 12.3125 5.1972656 C 12.3125 5.3352656 12.269547 5.4452969 12.185547 5.5292969 C 12.101547 5.6072969 12.000859 5.6464844 11.880859 5.6464844 C 11.760859 5.6464844 11.658219 5.6072969 11.574219 5.5292969 C 11.490219 5.4452969 11.447266 5.3352656 11.447266 5.1972656 C 11.447266 5.0592656 11.490219 4.9510469 11.574219 4.8730469 C 11.658219 4.7890469 11.760859 4.7460938 11.880859 4.7460938 z M 4.1289062 5.015625 L 4.6679688 5.015625 C 4.8479687 5.315625 5.0401406 5.6645469 5.2441406 6.0605469 C 5.4481406 6.4505469 5.6496562 6.8591562 5.8476562 7.2851562 C 6.0516563 7.7051563 6.2475937 8.1211562 6.4335938 8.5351562 C 6.6255937 8.9431562 6.7935 9.3125781 6.9375 9.6425781 C 7.0815 9.3125781 7.2456406 8.9431562 7.4316406 8.5351562 C 7.6236406 8.1211562 7.8195781 7.7051563 8.0175781 7.2851562 C 8.2215781 6.8591563 8.4249063 6.4505469 8.6289062 6.0605469 C 8.8329063 5.6645469 9.0250781 5.315625 9.2050781 5.015625 L 9.71875 5.015625 C 9.82075 5.963625 9.9047031 6.9580937 9.9707031 7.9960938 C 10.042703 9.0340938 10.104203 10.119906 10.158203 11.253906 L 9.5371094 11.253906 C 9.5011094 10.287906 9.4601094 9.3662344 9.4121094 8.4902344 C 9.3701094 7.6082344 9.3104219 6.7929687 9.2324219 6.0429688 C 9.1844219 6.1269687 9.1098125 6.2706094 9.0078125 6.4746094 C 8.9058125 6.6786094 8.78825 6.9155469 8.65625 7.1855469 C 8.52425 7.4555469 8.3861875 7.7465937 8.2421875 8.0585938 C 8.0981875 8.3645937 7.9563594 8.6649844 7.8183594 8.9589844 C 7.6803594 9.2469844 7.5554063 9.5137656 7.4414062 9.7597656 C 7.3334063 10.005766 7.2494531 10.203516 7.1894531 10.353516 L 6.640625 10.353516 C 6.580625 10.203516 6.4929063 10.005766 6.3789062 9.7597656 C 6.2709063 9.5137656 6.1477656 9.2469844 6.0097656 8.9589844 C 5.8717656 8.6649844 5.7318906 8.3645937 5.5878906 8.0585938 C 5.4438906 7.7465937 5.3058281 7.4555469 5.1738281 7.1855469 C 5.0418281 6.9155469 4.9242656 6.6786094 4.8222656 6.4746094 C 4.7202656 6.2706094 4.6456563 6.1269688 4.5976562 6.0429688 C 4.5196562 6.7929688 4.4562031 7.6082344 4.4082031 8.4902344 C 4.3662031 9.3662344 4.3270156 10.287906 4.2910156 11.253906 L 3.6875 11.253906 C 3.7415 10.119906 3.8011875 9.0340938 3.8671875 7.9960938 C 3.9391875 6.9580938 4.0269063 5.963625 4.1289062 5.015625 z M 11.591797 6.5996094 L 12.177734 6.5996094 L 12.177734 11.253906 L 11.591797 11.253906 L 11.591797 6.5996094 z "
     id="path4" />
</svg>

<svg xmlns="http://www.w3.org/2000/svg" viewBox="0 0 16 16">
 <path d="m 1.6 0 c -0.886 0 -1.6 0.713 -1.6 1.6 l 0 12.801 c 0 0.886 0.713 1.6 1.6 1.6 l 12.801 0 c 0.886 0 1.6 -0.713 1.6 -1.6 l 0 -12.801 c 0 -0.886 -0.713 -1.6 -1.6 -1.6 l -12.801 0 z m 10.281 4.746 c 0.12 0 0.221 0.043 0.305 0.127 c 0.084 0.078 0.127 0.186 0.127 0.324 c 0 0.138 -0.043 0.248 -0.127 0.332 c -0.084 0.078 -0.185 0.117 -0.305 0.117 c -0.12 0 -0.223 -0.039 -0.307 -0.117 c -0.084 -0.084 -0.127 -0.194 -0.127 -0.332 c 0 -0.138 0.043 -0.246 0.127 -0.324 c 0.084 -0.084 0.187 -0.127 0.307 -0.127 z m -7.752 0.27 l 0.539 0 c 0.18 0.3 0.372 0.649 0.576 1.045 c 0.204 0.39 0.406 0.799 0.604 1.225 c 0.204 0.42 0.4 0.836 0.586 1.25 c 0.192 0.408 0.36 0.777 0.504 1.107 c 0.144 -0.33 0.308 -0.699 0.494 -1.107 c 0.192 -0.414 0.388 -0.83 0.586 -1.25 c 0.204 -0.426 0.407 -0.835 0.611 -1.225 c 0.204 -0.396 0.396 -0.745 0.576 -1.045 l 0.514 0 c 0.102 0.948 0.186 1.942 0.252 2.98 c 0.072 1.038 0.133 2.124 0.187 3.258 l -0.621 0 c -0.036 -0.966 -0.077 -1.888 -0.125 -2.764 c -0.042 -0.882 -0.102 -1.697 -0.18 -2.447 c -0.048 0.084 -0.123 0.228 -0.225 0.432 c -0.102 0.204 -0.22 0.441 -0.352 0.711 c -0.132 0.27 -0.27 0.561 -0.414 0.873 c -0.144 0.306 -0.286 0.606 -0.424 0.9 c -0.138 0.288 -0.263 0.555 -0.377 0.801 c -0.108 0.246 -0.192 0.444 -0.252 0.594 l -0.549 0 c -0.06 -0.15 -0.148 -0.348 -0.262 -0.594 c -0.108 -0.246 -0.231 -0.513 -0.369 -0.801 c -0.138 -0.294 -0.278 -0.594 -0.422 -0.9 c -0.144 -0.312 -0.282 -0.603 -0.414 -0.873 c -0.132 -0.27 -0.25 -0.507 -0.352 -0.711 c -0.102 -0.204 -0.177 -0.348 -0.225 -0.432 c -0.078 0.75 -0.141 1.565 -0.189 2.447 c -0.042 0.876 -0.081 1.798 -0.117 2.764 l -0.604 0 c 0.054 -1.134 0.114 -2.22 0.18 -3.258 c 0.072 -1.038 0.16 -2.032 0.262 -2.98 z m 7.463 1.584 l 0.586 0 l 0 4.654 l -0.586 0 l 0 -4.654 z" style="fill:#ececec;fill-opacity:1"/>
</svg>
